X: 1036
T: Hicaz-Hümâyûn Sazsemâîsi
C: Neyzen Yusuf Paşa
O: Turkey
F: http://compmusic.upf.edu/node/140
N: hicaz-humayun--sazsemaisi--aksaksemai----neyzen_yusuf_pasa
N: makam= hicaz-humayun
N: form= sazsemaisi
N: usul= aksaksemai = 10/8
M: 10/8
L: 1/16
K: C _7/8B ^c  
Q: 1/4=132
%%MIDI tuningsystem comma53
A4 ^G2A3dcd ecd4e2  | f2ed cBc3ede cBA4B2  | 
w:  1. HANE  |   | 
G4 A2Bc BAAG G^3/4FG3DEF  | G4 A2cB AGA2 B2cB cdcB  | 
w:   |   | 
A3d cdeg feed dcd3ABc  | d4 ecd2 def2 edc4Bc  | 
w:   |  TESLİM  | 
eddc cBAB cdcB AcB4AG  | G4 g2gf feed dcdc BAG2  | 
w:   |   | 
A2B2 edc2 cdcB BAAB cdec  | d4 ecd2 def2 edc4Bc  | 
w:   |  TESLİM  | 
eddc cBAB cdcB AcB4AG  | G4 g2gf feed dcdc BAG2  | 
w:   |   | 
A2B2 edc3dcB BAA4z2  | e4 e2ef eded cd(3g^3/4fe e4  | 
w:   |  2. HANE  | 
d2=c2 =B2A_2/4B AGG^3/4F FEE4F2  | \
w:   | 
G2A2 B2dc BAAG G^3/4FG4A2  | 
w:   | 
B4 ABcB cdcB BAA4B2  | c2d2 e2fg feed dcd3ABc  | 
w:   |   | 
d4 ecd2 def2 edc4Bc  | eddc cBAB cdcB AcB4AG  | 
w:  TESLİM  |   | 
G4 g2gf feed dcdc BAG2  | A2B2 edc2 cdcB BAAB cdec  | 
w:   |   | 
d4 ecd2 def2 edc4Bc  | eddc cBAB cdcB AcB4AG  | 
w:  TESLİM  |   | 
G4 g2gf feed dcdc BAG2  | A2B2 edc3dcB BAA4z2  | 
w:   |   | 
a4 ^g2a=b agga gfe4f2  | ^g2a2 =b2=c'd' c'bba aga4z2  | 
w:  3. HANE  |   | 
^g2a2 =b2=c'd' c'bb2 a2bc' bagf  | \
w:   | 
edcd ef=b2 a^ggf fee4^3/4f2  | 
w:   | 
g4 e2fg feed dcd3ABc  | d4 ecd2 def2 edc4Bc  | 
w:   |  TESLİM  | 
eddc cBAB cdcB AcB4AG  | G4 g2gf feed dcdc BAG2  | 
w:   |   | 
A2B2 edc2 cdcB BAAB cdec  | d4 ecd2 def2 edc4Bc  | 
w:   |  TESLİM  | 
eddc cBAB cdcB AcB4AG  | G4 g2gf feed dcdc BAG2  | 
w:   |   | 
A2B2 edc3dcB BAA4z2  | z24  | d3cd3AB3cdedcd6e2  | 
w:   |  |  4. HANE  | 
f3ee3dd3cdcBAB6c2  | A3Bc3AB2c2dedcdcBAG4  | 
w:   |   | 
(3e2d2e2(3d2c2d2(3c2B2c2(3B2A2^G2A8  | \
w:   | 
d3cd3AB3cdedcd6e2  | 
w:   | 
f3ee3dd3cdcBAB6c2  | A3Bc3AB2c2dedcdcBAG4  | 
w:   |   | 
(3e2d2e2(3d2c2d2(3c2B2c2(3B2A2^G2A8  | \
w:   | 
a3^ga3ef3ga=baga6=g2  | 
w:   | 
=b3ag3^3/4ff3eegfee6d2  | e3^3/4fg3e=f3d(3e2f2g2(3f2e2d2c3B  | 
w:   |   | 
A4(3f2e2d2c3BcBBAA4z4  | a3^ga3ef3ga=baga6=g2  | 
w:   |   | 
=b3ag3^3/4ff3eegfee6d2  | e3^3/4fg3e=f3d(3e2f2g2(3f2e2d2c3B  | 
w:   |   | 
A4(3f2e2d2c3BcBBAA4z4  | z20  | d4 ecd2 def2 edc4Bc  | 
w:   |  |  TESLİM  | 
eddc cBAB cdcB AcB4AG  | G4 g2gf feed dcdc BAG2  | 
w:   |   | 
A2B2 edc2 cdcB BAAB cdec  | d4 ecd2 def2 edc4Bc  | 
w:   |  TESLİM  | 
eddc cBAB cdcB AcB4AG  | G4 g2gf feed dcdc BAG2  | 
w:   |   | 
A2B2 edc3dcB BAA4z2  | |


